; generated by PrusaSlicer 2.5.0+MacOS-x64 on 2022-12-22 at 20:51:51 UTC

; 

; external perimeters extrusion width = 0.42mm
; perimeters extrusion width = 0.44mm
; infill extrusion width = 0.44mm
; solid infill extrusion width = 0.44mm
; top infill extrusion width = 0.40mm
; first layer extrusion width = 0.42mm

M107
;TYPE:Custom
G90 ; use absolute coordinates
M83 ; extruder relative mode
M140 S80 ; set final bed temp
M104 S150 ; set temporary nozzle temp to prevent oozing during homing
G4 S10 ; allow partial nozzle warmup
G28 ; home all axis
G1 Z50 F240
G1 X2 Y10 F3000
M104 S240 ; set final nozzle temp
M190 S80 ; wait for bed temp to stabilize
M109 S240 ; wait for nozzle temp to stabilize
G1 Z0.28 F240
G92 E0
G1 Y140 E10 F1500 ; prime the nozzle
G1 X2.3 F5000
G92 E0
G1 Y10 E10 F1200 ; prime the nozzle
G92 E0
G21 ; set units to millimeters
G90 ; use absolute coordinates
M83 ; use relative distances for extrusion
; Filament gcode
M107
;LAYER_CHANGE
;Z:0.32
;HEIGHT:0.32
;BEFORE_LAYER_CHANGE
G92 E0
;0.32


G1 E-5 F3600
G1 Z.32 F9000
;AFTER_LAYER_CHANGE
;0.32
G1 X44.088 Y50.73
G1 E5 F2400
M204 S500
;TYPE:Skirt/Brim
;WIDTH:0.42
G1 F1200
G1 X45.482 Y49.894 E.07596
G1 X46.458 Y49.749 E.04613
G1 X184.542 Y49.749 E6.45417
G1 X186.119 Y50.143 E.07596
G1 X186.912 Y50.73 E.04613
G1 X192.77 Y56.588 E.38721
G1 X193.606 Y57.982 E.07596
G1 X193.751 Y58.958 E.04613
G1 X193.751 Y172.042 E5.28565
G1 X193.357 Y173.619 E.07596
G1 X192.77 Y174.412 E.04613
G1 X186.912 Y180.27 E.38721
G1 X185.518 Y181.106 E.07596
G1 X184.542 Y181.251 E.04613
G1 X46.458 Y181.251 E6.45417
G1 X44.881 Y180.857 E.07596
G1 X44.088 Y180.27 E.04613
G1 X38.23 Y174.412 E.38721
G1 X37.394 Y173.018 E.07596
G1 X37.249 Y172.042 E.04613
G1 X37.249 Y58.958 E5.28565
G1 X37.643 Y57.381 E.07596
G1 X38.23 Y56.588 E.04613
G1 X44.046 Y50.773 E.38441
G1 E-3.5 F3600
;WIPE_START
G1 F7200
G1 X45.482 Y49.894 E-.79962
G1 X46.458 Y49.749 E-.46884
G1 X46.787 Y49.749 E-.15654
;WIPE_END
G1 E-.075 F3600
G1 X46.336 Y54.486 F9000
G1 E5 F2400
G1 F1200
G1 X46.884 Y54.148 E.03008
G1 X49.869 Y53.438 E.14343
G1 X181.092 Y53.442 E6.13343
G1 X183.061 Y53.78 E.09339
G1 X184.941 Y54.52 E.09445
G1 X187.384 Y56.394 E.14391
G1 X189.228 Y59.1 E.15307
G1 X190.061 Y62.351 E.15686
G1 X190.061 Y168.539 E4.96331
G1 X189.724 Y170.55 E.09533
G1 X188.976 Y172.455 E.09564
G1 X186.672 Y175.275 E.17022
G1 X184.116 Y176.852 E.14039
G1 X181.131 Y177.561 E.14342
G1 X49.961 Y177.561 E6.13096
G1 X47.95 Y177.224 E.09533
G1 X46.045 Y176.476 E.09564
G1 X43.225 Y174.172 E.17022
G1 X41.648 Y171.616 E.14039
G1 X40.939 Y168.631 E.14342
G1 X40.939 Y62.461 E4.96244
G1 X41.276 Y60.45 E.09532
G1 X42.024 Y58.545 E.09564
G1 X44.328 Y55.725 E.17022
G1 X46.285 Y54.517 E.10751
G1 X46.467 Y54.81 F9000
G1 F1200
G1 X46.994 Y54.483 E.02897
G1 X49.89 Y53.79 E.13921
G1 X181.076 Y53.793 E6.13175
G1 X182.983 Y54.123 E.09043
G1 X184.789 Y54.837 E.09077
G1 X187.147 Y56.654 E.13917
G1 X188.92 Y59.271 E.14774
G1 X189.71 Y62.373 E.14958
G1 X189.71 Y168.524 E4.9616
G1 X189.38 Y170.473 E.0924
G1 X188.659 Y172.3 E.09182
G1 X186.462 Y174.992 E.16242
G1 X184.007 Y176.517 E.1351
G1 X181.11 Y177.21 E.13921
G1 X49.976 Y177.21 E6.1293
G1 X48.027 Y176.88 E.0924
G1 X46.2 Y176.159 E.09182
G1 X43.508 Y173.962 E.16242
G1 X41.983 Y171.507 E.1351
G1 X41.29 Y168.61 E.13921
G1 X41.29 Y62.476 E4.96078
G1 X41.62 Y60.527 E.0924
G1 X42.341 Y58.7 E.09182
G1 X44.538 Y56.008 E.16242
G1 X46.416 Y54.841 E.10333
G1 X46.599 Y55.139 F9000
G1 F1200
G1 X47.154 Y54.797 E.03044
G1 X49.911 Y54.141 E.13246
G1 X181.061 Y54.145 E6.13008
G1 X182.905 Y54.466 E.08746
G1 X184.636 Y55.154 E.08708
G1 X186.91 Y56.915 E.13442
G1 X188.612 Y59.442 E.14242
G1 X189.359 Y62.394 E.14233
G1 X189.359 Y168.509 E4.9599
G1 X189.047 Y170.361 E.08778
G1 X188.343 Y172.146 E.08967
G1 X186.209 Y174.747 E.15723
G1 X183.846 Y176.203 E.12974
G1 X181.09 Y176.859 E.13245
G1 X49.991 Y176.859 E6.12766
G1 X48.139 Y176.547 E.08778
G1 X46.354 Y175.843 E.08967
G1 X43.753 Y173.709 E.15723
G1 X42.297 Y171.346 E.12974
G1 X41.641 Y168.59 E.13245
G1 X41.641 Y62.491 E4.95914
G1 X41.953 Y60.639 E.08778
G1 X42.657 Y58.854 E.08967
G1 X44.791 Y56.253 E.15723
G1 X46.548 Y55.17 E.09649
G1 X46.73 Y55.468 F9000
G1 F1200
G1 X47.313 Y55.111 E.03192
G1 X49.931 Y54.492 E.12574
G1 X181.046 Y54.496 E6.12843
G1 X182.792 Y54.799 E.0828
G1 X184.482 Y55.472 E.08505
G1 X186.672 Y57.175 E.12966
G1 X188.279 Y59.558 E.13436
G1 X189.008 Y62.416 E.13786
G1 X189.008 Y168.494 E4.95817
G1 X188.704 Y170.284 E.08485
G1 X188.026 Y171.99 E.08581
G1 X185.957 Y174.5 E.15204
G1 X183.687 Y175.889 E.12438
G1 X181.069 Y176.508 E.12574
G1 X50.006 Y176.508 E6.12602
G1 X48.216 Y176.204 E.08485
G1 X46.51 Y175.526 E.08581
G1 X44 Y173.457 E.15204
G1 X42.611 Y171.187 E.12438
G1 X41.992 Y168.569 E.12574
G1 X41.992 Y62.506 E4.9575
G1 X42.296 Y60.716 E.08485
G1 X42.974 Y59.01 E.08581
G1 X45.043 Y56.5 E.15204
G1 X46.679 Y55.499 E.08965
G1 X46.86 Y55.793 F9000
G1 F1200
G1 X47.422 Y55.446 E.03085
G1 X49.952 Y54.844 E.12155
G1 X181.031 Y54.847 E6.12674
G1 X182.713 Y55.142 E.07981
G1 X184.328 Y55.788 E.08134
G1 X186.433 Y57.434 E.12488
G1 X187.97 Y59.728 E.12908
G1 X188.656 Y62.438 E.13064
G1 X188.656 Y168.479 E4.95646
G1 X188.361 Y170.206 E.08189
G1 X187.71 Y171.835 E.08196
G1 X185.748 Y174.217 E.14425
G1 X183.578 Y175.554 E.11913
G1 X181.049 Y176.156 E.12155
G1 X50.021 Y176.156 E6.12435
G1 X48.294 Y175.861 E.08189
G1 X46.665 Y175.21 E.08196
G1 X44.283 Y173.248 E.14425
G1 X42.946 Y171.078 E.11913
G1 X42.344 Y168.549 E.12154
G1 X42.344 Y62.521 E4.95583
G1 X42.639 Y60.794 E.08189
G1 X43.29 Y59.165 E.08196
G1 X45.252 Y56.783 E.14425
G1 X46.809 Y55.824 E.08547
G1 X46.991 Y56.121 F9000
G1 F1200
G1 X47.581 Y55.761 E.03233
G1 X49.972 Y55.195 E.11484
G1 X181.015 Y55.199 E6.12507
G1 X182.633 Y55.484 E.0768
G1 X184.174 Y56.105 E.07761
G1 X186.194 Y57.693 E.1201
G1 X187.661 Y59.898 E.12379
G1 X188.305 Y62.459 E.12347
G1 X188.305 Y168.464 E4.95474
G1 X188.018 Y170.128 E.07891
G1 X187.395 Y171.678 E.07809
G1 X185.496 Y173.97 E.13909
G1 X183.419 Y175.239 E.11379
G1 X181.028 Y175.805 E.11484
G1 X50.036 Y175.805 E6.12269
G1 X48.372 Y175.518 E.07891
G1 X46.822 Y174.895 E.07809
G1 X44.53 Y172.996 E.13909
G1 X43.261 Y170.919 E.11379
G1 X42.695 Y168.528 E.11484
G1 X42.695 Y62.536 E4.95417
G1 X42.982 Y60.872 E.07891
G1 X43.605 Y59.322 E.07809
G1 X45.504 Y57.03 E.13909
G1 X46.939 Y56.153 E.07865
G1 X47.12 Y56.451 F9000
G1 F1200
G1 X47.739 Y56.076 E.03382
G1 X49.992 Y55.546 E.10818
G1 X181 Y55.55 E6.1234
G1 X182.553 Y55.827 E.07376
G1 X184.018 Y56.421 E.07388
G1 X185.954 Y57.951 E.11534
G1 X187.328 Y60.013 E.11581
G1 X187.954 Y62.481 E.11902
G1 X187.954 Y168.449 E4.95302
G1 X187.685 Y170.014 E.07422
G1 X187.079 Y171.521 E.07592
G1 X185.246 Y173.722 E.13388
G1 X183.261 Y174.924 E.10845
G1 X181.008 Y175.454 E.10818
G1 X50.051 Y175.454 E6.12105
G1 X48.486 Y175.185 E.07422
G1 X46.979 Y174.579 E.07592
G1 X44.778 Y172.746 E.13388
G1 X43.576 Y170.761 E.10845
G1 X43.046 Y168.508 E.10818
G1 X43.046 Y62.551 E4.95253
G1 X43.315 Y60.986 E.07422
G1 X43.921 Y59.479 E.07592
G1 X45.754 Y57.278 E.13388
G1 X47.069 Y56.482 E.07182
G1 X47.249 Y56.777 F9000
G1 F1200
G1 X47.847 Y56.411 E.03279
G1 X50.013 Y55.898 E.10401
G1 X180.984 Y55.901 E6.12169
G1 X182.473 Y56.169 E.0707
G1 X183.862 Y56.736 E.07014
G1 X185.713 Y58.208 E.11056
G1 X187.018 Y60.182 E.11057
G1 X187.602 Y62.503 E.11188
G1 X187.602 Y168.434 E4.9513
G1 X187.342 Y169.935 E.07122
G1 X186.764 Y171.364 E.07204
G1 X185.038 Y173.437 E.1261
G1 X183.153 Y174.589 E.10324
G1 X180.987 Y175.102 E.10401
G1 X50.066 Y175.102 E6.11938
G1 X48.565 Y174.842 E.07122
G1 X47.136 Y174.264 E.07204
G1 X45.063 Y172.538 E.1261
G1 X43.911 Y170.653 E.10324
G1 X43.398 Y168.487 E.10401
G1 X43.398 Y62.566 E4.95086
G1 X43.658 Y61.065 E.07122
G1 X44.236 Y59.636 E.07204
G1 X45.962 Y57.563 E.1261
G1 X47.198 Y56.808 E.06765
G1 X47.378 Y57.106 F9000
G1 F1200
G1 X48.005 Y56.726 E.03428
G1 X50.033 Y56.249 E.09736
G1 X180.968 Y56.253 E6.12003
G1 X182.357 Y56.502 E.06594
G1 X183.705 Y57.052 E.06808
G1 X185.472 Y58.465 E.10573
G1 X186.708 Y60.349 E.10533
G1 X187.251 Y62.524 E.10479
G1 X187.251 Y168.419 E4.94958
G1 X186.999 Y169.856 E.0682
G1 X186.449 Y171.206 E.06813
G1 X184.787 Y173.189 E.12094
G1 X182.995 Y174.274 E.09793
G1 X180.967 Y174.751 E.09735
G1 X50.081 Y174.751 E6.11771
G1 X48.644 Y174.499 E.0682
G1 X47.294 Y173.949 E.06813
G1 X45.311 Y172.287 E.12094
G1 X44.226 Y170.495 E.09793
G1 X43.749 Y168.467 E.09735
G1 X43.749 Y62.581 E4.9492
G1 X44.001 Y61.144 E.0682
G1 X44.551 Y59.794 E.06813
G1 X46.213 Y57.811 E.12094
G1 X47.326 Y57.137 E.06085
G1 X47.505 Y57.435 F9000
G1 F1200
G1 X48.162 Y57.042 E.03578
G1 X50.053 Y56.6 E.09076
G1 X180.952 Y56.604 E6.11835
G1 X182.276 Y56.844 E.06286
G1 X183.548 Y57.367 E.0643
G1 X185.23 Y58.721 E.10093
G1 X186.375 Y60.464 E.09745
G1 X186.9 Y62.546 E.10038
G1 X186.9 Y168.403 E4.94783
G1 X186.656 Y169.776 E.06515
G1 X186.135 Y171.047 E.06422
G1 X184.538 Y172.94 E.11577
G1 X182.838 Y173.958 E.09262
G1 X180.947 Y174.4 E.09076
G1 X50.097 Y174.4 E6.11605
G1 X48.724 Y174.156 E.06515
G1 X47.453 Y173.635 E.06422
G1 X45.56 Y172.038 E.11577
G1 X44.542 Y170.338 E.09262
G1 X44.1 Y168.447 E.09076
G1 X44.1 Y62.597 E4.94753
G1 X44.344 Y61.224 E.06515
G1 X44.865 Y59.953 E.06422
G1 X46.462 Y58.06 E.11577
G1 X47.454 Y57.466 E.05403
G1 X47.633 Y57.762 F9000
G1 F1200
G1 X48.27 Y57.377 E.03478
G1 X50.073 Y56.952 E.08661
G1 X180.936 Y56.955 E6.11663
G1 X182.193 Y57.186 E.05975
G1 X183.39 Y57.682 E.06052
G1 X184.987 Y58.976 E.09611
G1 X186.064 Y60.631 E.09226
G1 X186.548 Y62.568 E.09333
G1 X186.548 Y168.388 E4.94612
G1 X186.324 Y169.66 E.06037
G1 X185.82 Y170.888 E.06205
G1 X184.331 Y172.655 E.10799
G1 X182.73 Y173.623 E.08745
G1 X180.927 Y174.048 E.08661
G1 X50.112 Y174.048 E6.11438
G1 X48.84 Y173.824 E.06037
G1 X47.612 Y173.32 E.06205
G1 X45.845 Y171.831 E.10799
G1 X44.877 Y170.23 E.08745
G1 X44.452 Y168.427 E.08661
G1 X44.452 Y62.612 E4.94586
G1 X44.676 Y61.34 E.06037
G1 X45.18 Y60.112 E.06205
G1 X46.669 Y58.345 E.10799
G1 X47.582 Y57.793 E.04987
G1 X47.76 Y58.091 F9000
G1 F1200
G1 X48.426 Y57.693 E.03629
G1 X50.093 Y57.303 E.08003
G1 X180.92 Y57.306 E6.11493
G1 X182.11 Y57.528 E.05661
G1 X183.23 Y57.996 E.05672
G1 X184.743 Y59.23 E.09127
G1 X185.753 Y60.796 E.08707
G1 X186.197 Y62.589 E.08633
G1 X186.197 Y168.372 E4.9444
G1 X185.982 Y169.579 E.0573
G1 X185.506 Y170.728 E.05811
G1 X184.083 Y172.405 E.10282
G1 X182.574 Y173.307 E.08218
G1 X180.907 Y173.697 E.08002
G1 X50.128 Y173.697 E6.11271
G1 X48.921 Y173.482 E.0573
G1 X47.772 Y173.006 E.05811
G1 X46.095 Y171.583 E.10282
G1 X45.193 Y170.074 E.08218
G1 X44.803 Y168.407 E.08002
G1 X44.803 Y62.628 E4.94419
G1 X45.018 Y61.421 E.0573
G1 X45.494 Y60.272 E.05811
G1 X46.917 Y58.595 E.10282
G1 X47.708 Y58.122 E.04309
G1 X47.888 Y58.419 F9000
G1 F1200
G1 X48.534 Y58.028 E.03531
G1 X50.114 Y57.654 E.07587
G1 X180.903 Y57.658 E6.11319
G1 X182.027 Y57.87 E.05343
G1 X183.07 Y58.309 E.05292
G1 X184.499 Y59.484 E.08647
G1 X185.419 Y60.91 E.07931
G1 X185.846 Y62.611 E.08197
G1 X185.846 Y168.356 E4.94263
G1 X185.64 Y169.497 E.0542
G1 X185.193 Y170.567 E.05419
G1 X183.876 Y172.119 E.09513
G1 X182.466 Y172.972 E.07704
G1 X180.886 Y173.346 E.07587
G1 X50.144 Y173.346 E6.111
G1 X49.003 Y173.14 E.0542
G1 X47.933 Y172.693 E.05419
G1 X46.381 Y171.376 E.09513
G1 X45.528 Y169.966 E.07704
G1 X45.154 Y168.386 E.07587
G1 X45.154 Y62.644 E4.94248
G1 X45.36 Y61.503 E.0542
G1 X45.807 Y60.433 E.05419
G1 X47.124 Y58.881 E.09513
G1 X47.837 Y58.45 E.03893
G1 X48.014 Y58.748 F9000
G1 F1200
G1 X48.69 Y58.344 E.03681
G1 X50.134 Y58.006 E.0693
G1 X180.887 Y58.009 E6.1115
G1 X181.907 Y58.201 E.04853
G1 X182.909 Y58.623 E.05081
G1 X184.253 Y59.737 E.08158
G1 X185.107 Y61.074 E.07418
G1 X185.494 Y62.632 E.07502
G1 X185.494 Y168.34 E4.94089
G1 X185.298 Y169.415 E.05106
G1 X184.88 Y170.405 E.05023
G1 X183.628 Y171.869 E.09001
G1 X182.31 Y172.656 E.0718
G1 X180.866 Y172.994 E.06929
G1 X50.16 Y172.994 E6.10931
G1 X49.085 Y172.798 E.05106
G1 X48.095 Y172.38 E.05023
G1 X46.631 Y171.128 E.09001
G1 X45.844 Y169.81 E.0718
G1 X45.506 Y168.366 E.06929
G1 X45.506 Y62.66 E4.94079
G1 X45.702 Y61.585 E.05106
G1 X46.12 Y60.595 E.05023
G1 X47.372 Y59.131 E.09001
G1 X47.963 Y58.778 E.03219
G1 X48.143 Y59.076 F9000
G1 F1200
G1 X48.799 Y58.679 E.03585
G1 X50.155 Y58.357 E.06514
G1 X180.87 Y58.36 E6.10974
G1 X181.823 Y58.542 E.04532
G1 X182.747 Y58.936 E.04697
G1 X184.006 Y59.988 E.0767
G1 X184.795 Y61.237 E.06905
G1 X185.143 Y62.653 E.06814
G1 X185.143 Y168.324 E4.93918
G1 X184.966 Y169.296 E.04615
G1 X184.567 Y170.243 E.04806
G1 X183.422 Y171.583 E.08235
G1 X182.201 Y172.321 E.06669
G1 X180.845 Y172.643 E.06513
G1 X50.176 Y172.643 E6.10761
G1 X49.204 Y172.466 E.04615
G1 X48.257 Y172.067 E.04806
G1 X46.917 Y170.922 E.08235
G1 X46.179 Y169.701 E.06669
G1 X45.857 Y168.345 E.06513
G1 X45.857 Y62.676 E4.93909
G1 X46.034 Y61.704 E.04615
G1 X46.433 Y60.757 E.04806
G1 X47.578 Y59.417 E.08235
G1 X48.091 Y59.107 E.02804
G1 X48.268 Y59.404 F9000
G1 F1200
G1 X48.955 Y58.995 E.03735
G1 X50.175 Y58.708 E.05857
G1 X180.853 Y58.712 E6.108
G1 X181.737 Y58.883 E.04207
G1 X182.584 Y59.248 E.04311
G1 X183.759 Y60.239 E.07185
G1 X184.461 Y61.35 E.06143
G1 X184.792 Y62.675 E.06382
G1 X184.792 Y168.308 E4.93739
G1 X184.625 Y169.213 E.04299
G1 X184.255 Y170.08 E.04408
G1 X183.175 Y171.331 E.07724
G1 X182.045 Y172.005 E.0615
G1 X180.825 Y172.292 E.05857
G1 X50.192 Y172.292 E6.10591
G1 X49.287 Y172.125 E.04299
G1 X48.42 Y171.755 E.04408
G1 X47.169 Y170.675 E.07724
G1 X46.495 Y169.545 E.0615
G1 X46.208 Y168.325 E.05857
G1 X46.208 Y62.692 E4.93739
G1 X46.375 Y61.787 E.04299
G1 X46.745 Y60.92 E.04408
G1 X47.825 Y59.669 E.07724
G1 X48.217 Y59.435 E.02134
G1 X48.397 Y59.733 F9000
G1 F1200
G1 X49.064 Y59.33 E.03641
G1 X50.196 Y59.06 E.0544
G1 X180.836 Y59.063 E6.10621
G1 X181.649 Y59.224 E.03877
G1 X182.419 Y59.559 E.03925
G1 X183.51 Y60.488 E.06696
G1 X184.148 Y61.511 E.05637
G1 X184.44 Y62.696 E.05701
G1 X184.44 Y168.292 E4.93563
G1 X184.283 Y169.128 E.03977
G1 X183.943 Y169.916 E.04012
G1 X182.969 Y171.046 E.0697
G1 X181.936 Y171.67 E.05643
G1 X180.804 Y171.94 E.05439
G1 X50.208 Y171.94 E6.10415
G1 X49.372 Y171.783 E.03977
G1 X48.584 Y171.443 E.04012
G1 X47.454 Y170.469 E.0697
G1 X46.83 Y169.436 E.05643
G1 X46.56 Y168.304 E.05439
G1 X46.56 Y62.708 E4.93563
G1 X46.717 Y61.872 E.03977
G1 X47.057 Y61.084 E.04012
G1 X48.031 Y59.954 E.0697
G1 X48.346 Y59.764 E.01721
G1 X48.522 Y60.061 F9000
G1 F1200
G1 X49.219 Y59.646 E.03792
G1 X50.216 Y59.411 E.04785
G1 X180.818 Y59.414 E6.10443
G1 X181.56 Y59.564 E.03542
G1 X182.253 Y59.87 E.03537
G1 X183.259 Y60.736 E.06206
G1 X183.834 Y61.671 E.05132
G1 X184.089 Y62.716 E.05029
G1 X184.089 Y168.275 E4.93387
G1 X183.942 Y169.042 E.03651
G1 X183.632 Y169.75 E.03612
G1 X182.724 Y170.793 E.06466
G1 X181.781 Y171.354 E.05129
G1 X180.784 Y171.589 E.04785
G1 X50.225 Y171.589 E6.10242
G1 X49.458 Y171.442 E.03651
G1 X48.75 Y171.132 E.03612
G1 X47.707 Y170.224 E.06466
G1 X47.146 Y169.281 E.05129
G1 X46.911 Y168.284 E.04784
G1 X46.911 Y62.725 E4.9339
G1 X47.058 Y61.958 E.03651
G1 X47.368 Y61.25 E.03612
G1 X48.276 Y60.207 E.06466
G1 X48.471 Y60.091 E.01057
G1 X48.652 Y60.39 F9000
G1 F1200
G1 X49.329 Y59.981 E.037
G1 X50.237 Y59.762 E.04365
G1 X180.799 Y59.766 E6.10259
G1 X181.47 Y59.904 E.03201
G1 X182.085 Y60.179 E.03149
G1 X183.007 Y60.982 E.05714
G1 X183.519 Y61.829 E.04626
G1 X183.738 Y62.737 E.04365
G1 X183.738 Y168.258 E4.93215
G1 X183.612 Y168.919 E.03144
G1 X183.321 Y169.584 E.03394
G1 X182.518 Y170.507 E.05717
G1 X181.671 Y171.019 E.04626
G1 X180.763 Y171.238 E.04365
G1 X50.242 Y171.238 E6.10067
G1 X49.581 Y171.112 E.03144
G1 X48.916 Y170.821 E.03394
G1 X47.993 Y170.018 E.05717
G1 X47.481 Y169.171 E.04626
G1 X47.262 Y168.263 E.04365
G1 X47.262 Y62.742 E4.93215
G1 X47.388 Y62.081 E.03144
G1 X47.679 Y61.416 E.03394
G1 X48.482 Y60.493 E.05717
G1 X48.6 Y60.421 E.00646
G1 X48.776 Y60.717 F9000
G1 F1200
G1 X49.484 Y60.297 E.03851
G1 X50.257 Y60.114 E.03712
G1 X180.782 Y60.117 E6.10081
G1 X181.344 Y60.233 E.02684
G1 X181.917 Y60.489 E.02932
